public/assets/images/utils/tag-02.svg

<svg width="20" height="20" viewBox="0 0 20 20" fill="none" xmlns="http://www.w3.org/2000/svg">
<path d="M6.6665 6.66663H6.67484M3.80212 2.44767L2.44755 3.80224C2.1593 4.0905 2.01517 4.23462 1.9121 4.40282C1.82072 4.55194 1.75338 4.71451 1.71255 4.88457C1.6665 5.07638 1.6665 5.28021 1.6665 5.68786L1.6665 8.06206C1.6665 8.46971 1.6665 8.67353 1.71255 8.86534C1.75338 9.03541 1.82072 9.19798 1.9121 9.3471C2.01517 9.51529 2.1593 9.65942 2.44755 9.94767L8.83807 16.3382C9.82812 17.3282 10.3231 17.8233 10.894 18.0087C11.3961 18.1719 11.9369 18.1719 12.439 18.0087C13.0099 17.8233 13.5049 17.3282 14.4949 16.3382L16.3381 14.4951C17.3281 13.505 17.8231 13.01 18.0086 12.4392C18.1718 11.9371 18.1718 11.3962 18.0086 10.8941C17.8231 10.3233 17.3281 9.82824 16.3381 8.8382L9.94755 2.44768C9.6593 2.15942 9.51517 2.0153 9.34698 1.91223C9.19786 1.82085 9.03528 1.7535 8.86522 1.71268C8.67341 1.66663 8.46958 1.66663 8.06193 1.66663L5.68774 1.66663C5.28009 1.66663 5.07626 1.66663 4.88445 1.71268C4.71439 1.7535 4.55182 1.82084 4.4027 1.91223C4.2345 2.0153 4.09037 2.15942 3.80212 2.44767ZM7.08317 6.66663C7.08317 6.89674 6.89662 7.08329 6.6665 7.08329C6.43639 7.08329 6.24984 6.89674 6.24984 6.66663C6.24984 6.43651 6.43639 6.24996 6.6665 6.24996C6.89662 6.24996 7.08317 6.43651 7.08317 6.66663Z" stroke="#65636D" stroke-linecap="round" stroke-linejoin="round"/>
</svg>

<svg xmlns="http://www.w3.org/2000/svg" fill="none" viewBox="0 0 20 20"><path stroke="#65636d" stroke-linecap="round" stroke-linejoin="round" d="M6.667 6.667h.008m-2.873-4.22L2.448 3.803c-.289.288-.433.433-.536.6q-.137.226-.2.483c-.045.191-.045.395-.045.803v2.374c0 .408 0 .612.046.803q.061.257.2.482c.102.168.246.312.535.6l6.39 6.391c.99.99 1.485 1.485 2.056 1.67a2.5 2.5 0 0 0 1.545 0c.57-.185 1.066-.68 2.056-1.67l1.843-1.843c.99-.99 1.485-1.485 1.67-2.056a2.5 2.5 0 0 0 0-1.545c-.185-.57-.68-1.066-1.67-2.056l-6.39-6.39c-.289-.289-.433-.433-.601-.536a1.7 1.7 0 0 0-.482-.2c-.192-.045-.395-.045-.803-.045H5.688c-.408 0-.612 0-.804.046q-.256.061-.481.2c-.168.102-.313.246-.6.535m3.281 4.22a.417.417 0 1 1-.833 0 .417.417 0 0 1 .833 0"/></svg>
